themes/long-island-rim/img/money.svg

<svg width="24" height="24" xmlns="http://www.w3.org/2000/svg" fill-rule="evenodd" clip-rule="evenodd"><path d="M4.82 19.407c-2.966-1.857-4.94-5.153-4.94-8.907 0-5.795 4.705-10.5 10.5-10.5 3.605 0 6.789 1.821 8.68 4.593 2.966 1.857 4.94 5.153 4.94 8.907 0 5.795-4.705 10.5-10.5 10.5-3.599 0-6.778-1.815-8.67-4.579l-.01-.014zm8.68-15.407c5.243 0 9.5 4.257 9.5 9.5s-4.257 9.5-9.5 9.5-9.5-4.257-9.5-9.5 4.257-9.5 9.5-9.5zm.5 15h-1.021v-.871c-2.343-.302-2.599-2.179-2.599-2.744h1.091c.025.405.157 1.774 2.182 1.774.599 0 1.088-.141 1.453-.419.361-.276.536-.612.536-1.029 0-.793-.513-1.367-2.07-1.718-2.368-.536-2.923-1.398-2.923-2.533 0-1.509 1.223-2.216 2.33-2.406v-1.054h1.021v1.015c2.491.195 2.695 2.215 2.695 2.771h-1.098c0-1.161-.918-1.766-1.996-1.766-1.077 0-1.854.532-1.854 1.408 0 .781.439 1.165 1.994 1.554 1.879.473 2.999 1.101 2.999 2.681 0 1.744-1.509 2.393-2.74 2.493v.844zm2.85-15.453c-1.696-1.58-3.971-2.547-6.47-2.547-5.243 0-9.5 4.257-9.5 9.5 0 2.633 1.073 5.017 2.806 6.739l-.004-.01c-.44-1.159-.682-2.416-.682-3.729 0-5.795 4.705-10.5 10.5-10.5 1.171 0 2.298.192 3.35.547z"/></svg>

<svg version="1.1" id="Layer_1" xmlns="http://www.w3.org/2000/svg" xmlns:xlink="http://www.w3.org/1999/xlink" x="0px" y="0px"
	 viewBox="0 0 24 24" style="enable-background:new 0 0 24 24;" xml:space="preserve">
<style type="text/css">
	.st0{fill-rule:evenodd;clip-rule:evenodd;fill:#FFFFFF;}
</style>
<path class="st0" d="M4.8,19.4c-3-1.9-4.9-5.2-4.9-8.9C-0.1,4.7,4.6,0,10.4,0c3.6,0,6.8,1.8,8.7,4.6c3,1.9,4.9,5.2,4.9,8.9
	C24,19.3,19.3,24,13.5,24C9.9,24,6.7,22.2,4.8,19.4C4.8,19.4,4.8,19.4,4.8,19.4z M13.5,4c5.2,0,9.5,4.3,9.5,9.5S18.7,23,13.5,23
	S4,18.7,4,13.5S8.3,4,13.5,4z M14,19h-1v-0.9c-2.3-0.3-2.6-2.2-2.6-2.7h1.1c0,0.4,0.2,1.8,2.2,1.8c0.6,0,1.1-0.1,1.5-0.4
	c0.4-0.3,0.5-0.6,0.5-1c0-0.8-0.5-1.4-2.1-1.7c-2.4-0.5-2.9-1.4-2.9-2.5c0-1.5,1.2-2.2,2.3-2.4V8h1v1c2.5,0.2,2.7,2.2,2.7,2.8h-1.1
	c0-1.2-0.9-1.8-2-1.8c-1.1,0-1.9,0.5-1.9,1.4c0,0.8,0.4,1.2,2,1.6c1.9,0.5,3,1.1,3,2.7c0,1.7-1.5,2.4-2.7,2.5C14,18.2,14,19,14,19z
	 M16.9,3.5C15.2,2,12.9,1,10.4,1c-5.2,0-9.5,4.3-9.5,9.5c0,2.6,1.1,5,2.8,6.7l0,0C3.2,16.1,3,14.8,3,13.5C3,7.7,7.7,3,13.5,3
	C14.7,3,15.8,3.2,16.9,3.5z"/>
</svg>
